X:1
T:There'll Be a Hot Time
M:4/4
L:1/4
K:G
 D3/4 G/4| B3/4- B/4 B3/4 B/4 B3/4 A/4 G3/4 E/4| D/2 D E/2 D B,3/4 D/4|\
 D3/4 D/4 D3/4 E/4 D3/4 C/4 B,3/4 C/4| D/4 D/4- D E/2 D D3/4 G/4| B3/4 B/4 B3/4 B/4 B3/4 A/4 G3/4 E/4|\
 D/2 D E/2 D B,3/4 C/4| D3/4 D/4 D3/4 D/4 D3/4 C/4 B,3/4 C/4| D/2 D E/2 D z|\
 B2 B2| B3 ^A3/4 B/4| c B ^A B| G3 z| d2 d2| d3 ^c3/4 d/4| e d ^c d|\
 B D E G| B2 B2| B B2 B3/4- B/4| c B ^A B| G G F G| B A2 D3/4 D/4|\
 B A2 D| G2 D2| E2 G2| B2 B2| B3 ^A3/4 B/4| c B ^A B| G3 z| d2 d2|\
 d3 ^c3/4- d/4| e d ^c d| B D E G| B2 B2| B3 ^A3/4 B/4| c B ^A B| G G G G|\
 B A2 D/2D/2| B A2 D| G4-| G z z||

